x-pack/platform/plugins/shared/index_management/public/assets/php.svg

<svg width="128" height="128" viewBox="0 0 128 128" fill="none" xmlns="http://www.w3.org/2000/svg">
<path d="M64 31.4337C28.6551 31.4337 0 45.9551 0 63.8674C0 81.7798 28.6551 96.3011 64 96.3011C99.3449 96.3011 128 81.7798 128 63.8674C128 45.9551 99.3449 31.4337 64 31.4337ZM47.3468 70.1863C45.8195 71.6152 44.1235 72.205 42.2557 72.8126C40.3879 73.4212 38.0109 73.2955 35.1207 73.2955H28.5703L26.7548 83.7712H19.1066L25.9314 48.1539H40.6393C45.0642 48.1539 48.2917 49.4267 50.3209 51.7492C52.35 54.0716 52.9597 57.3683 52.151 61.5303C51.8168 63.2452 51.2543 64.8396 50.4602 66.2601C49.6374 67.7258 48.5864 69.0511 47.3468 70.1863ZM69.6715 73.2955L72.6896 58.1896C73.0332 56.4213 72.9074 55.1077 72.3114 54.4655C71.7143 53.8223 70.4446 53.3918 68.5035 53.3918H62.4381L58.5296 73.2955H50.941L57.7659 38.7259H65.3545L63.5401 48.1539H70.3001C74.5542 48.1539 77.4874 49.0077 79.1017 50.4911C80.716 51.9744 81.2 54.0067 80.5547 57.3296L77.3795 73.2955H69.6715ZM111.845 61.5858C111.512 63.3007 110.949 64.8679 110.156 66.2873C109.362 67.7089 108.325 69.0089 107.043 70.1863C105.516 71.6152 103.819 72.205 101.952 72.8126C100.086 73.4212 97.7065 73.2955 94.8163 73.2955H88.2658L86.4514 83.7712H78.8032L85.627 48.1539H100.336C104.761 48.1539 107.988 49.4267 110.016 51.7492C112.043 54.0716 112.654 57.4249 111.845 61.5858ZM97.4373 53.3918H92.1984L89.3417 68.0577H93.995C97.0769 68.0577 99.3753 67.7539 100.884 66.5911C102.394 65.4304 103.412 63.6286 103.941 60.9123C104.448 58.3028 104.217 56.2673 103.249 55.1946C102.28 54.1219 100.343 53.3918 97.4373 53.3918ZM37.7417 53.3918H32.5018L29.6451 68.0577H34.2973C37.3803 68.0577 39.6776 67.7539 41.1872 66.5911C42.6967 65.4304 43.7149 63.6286 44.2429 60.9123C44.7499 58.3028 44.5195 56.2673 43.5515 55.1946C42.5836 54.1219 40.6477 53.3918 37.7417 53.3918Z" fill="#6181B6"/>
</svg>

<svg xmlns="http://www.w3.org/2000/svg" width="128" height="128" fill="none"><path fill="#6181B6" d="M64 31.434c-35.345 0-64 14.521-64 32.433C0 81.78 28.655 96.301 64 96.301s64-14.521 64-32.434-28.655-32.433-64-32.433M47.347 70.186c-1.528 1.43-3.224 2.019-5.091 2.627-1.868.608-4.245.483-7.135.483h-6.55L26.754 83.77h-7.648l6.824-35.617H40.64c4.425 0 7.653 1.273 9.682 3.595s2.639 5.62 1.83 9.781c-.334 1.715-.897 3.31-1.69 4.73a15.8 15.8 0 0 1-3.114 3.926m22.324 3.11L72.69 58.19c.343-1.769.217-3.082-.379-3.724-.597-.644-1.866-1.074-3.808-1.074h-6.065L58.53 73.296H50.94l6.825-34.57h7.589l-1.815 9.428h6.76c4.254 0 7.187.854 8.802 2.337s2.098 3.516 1.453 6.839l-3.176 15.966zm42.174-11.71q-.5 2.572-1.689 4.701-1.19 2.133-3.113 3.9c-1.527 1.428-3.224 2.018-5.091 2.626s-4.245.483-7.136.483h-6.55L86.45 83.77h-7.648l6.824-35.617h14.709c4.425 0 7.652 1.273 9.68 3.595s2.638 5.676 1.829 9.837m-14.408-8.194h-5.239l-2.856 14.666h4.653c3.082 0 5.38-.304 6.889-1.467 1.51-1.16 2.528-2.962 3.057-5.679.507-2.61.276-4.645-.692-5.717-.969-1.073-2.906-1.803-5.812-1.803m-59.695 0h-5.24l-2.857 14.666h4.652c3.083 0 5.38-.304 6.89-1.467 1.51-1.16 2.528-2.962 3.056-5.679.507-2.61.276-4.645-.692-5.717-.967-1.073-2.903-1.803-5.81-1.803"/></svg>
